X:1179
T:Vindarna sucka uti skogarna
R:Visa
Z:Klas Krantz, 2006
Q:Mycket fritt och långsamt
L:1/8
M:3/4
K:Gm
"Gm"d2B2B2 | "C"c>B cd "D7"(3cA^F | "Gm"d2B2B2 | "C"c>B cd "D7"(3cA^F |
"Gm"(3D=E^F GB "D7"AF | "Gm"(3D=E^F GB "D7"AF | "Gm"(3D=E^F GB "D7"AG | (3^FGA "Gm"G2z2 |]

(:musicend:)

(:music:)
